X: 45
T: Kelso Lasses
%R: slip-jig
B: Stewart "A Select Collection of Airs, Jigs, Marches and Reels", ca.1784, p.21 #45
F: http://imslp.org/wiki/A_Select_Collection_of_Airs,_Jigs,_Marches_and_Reels_%28Various%29
Z: 2017 John Chambers <jc:trillian.mit.edu>
M: 9/8
L: 1/8
K: G
f |\
g2d BGB BGB | g2(d B)GB TA2f |\
g2d BGB BGB | cAc BGB A2 :|
|: G |\
Bcd dec (dB).G | (B/A/B/c/d) edB TA2G |\
Bcd dec (dB).G | cAc BGB A2 :|

%%sep 1 1 500
%%sep 1 1 500

